app/assets/images/heroicons/micro/arrow-trending-down.svg

<svg width="16" height="16" viewBox="0 0 16 16" fill="none" xmlns="http://www.w3.org/2000/svg">
<path fill-rule="evenodd" clip-rule="evenodd" d="M1.21967 4.21967C1.51256 3.92678 1.98744 3.92678 2.28033 4.21967L6 7.93934L8.76114 5.17821C8.92079 5.01855 9.14387 4.93932 9.36846 4.9625C9.59305 4.98568 9.79525 5.1088 9.91893 5.29769C11.0325 6.99835 11.9516 8.85818 12.6372 10.854L13.3655 9.59253C13.5726 9.23381 14.0313 9.1109 14.39 9.31801C14.7488 9.52512 14.8717 9.98381 14.6646 10.3425L13.0736 13.0982C12.9741 13.2705 12.8103 13.3962 12.6182 13.4476C12.426 13.4991 12.2213 13.4722 12.049 13.3727L9.29337 11.7817C8.93465 11.5746 8.81175 11.1159 9.01885 10.7572C9.22596 10.3985 9.68465 10.2756 10.0434 10.4827L11.1398 11.1157C10.611 9.62542 9.94346 8.21817 9.1561 6.90456L6.53033 9.53033C6.23744 9.82322 5.76256 9.82322 5.46967 9.53033L1.21967 5.28033C0.926777 4.98744 0.926777 4.51256 1.21967 4.21967Z" fill="#0F172A"/>
</svg>

<svg xmlns="http://www.w3.org/2000/svg" viewBox="0 0 16 16" fill="currentColor" aria-hidden="true" data-slot="icon">
  <path fill-rule="evenodd" d="M1.22 4.22a.75.75 0 0 1 1.06 0L6 7.94l2.761-2.762a.75.75 0 0 1 1.158.12 24.9 24.9 0 0 1 2.718 5.556l.729-1.261a.75.75 0 0 1 1.299.75l-1.591 2.755a.75.75 0 0 1-1.025.275l-2.756-1.591a.75.75 0 1 1 .75-1.3l1.097.634a23.417 23.417 0 0 0-1.984-4.211L6.53 9.53a.75.75 0 0 1-1.06 0L1.22 5.28a.75.75 0 0 1 0-1.06Z" clip-rule="evenodd"/>
</svg>
